X:1
T:Dear Little One
T:Traditional
T:Dear Little One
T:Public Domain
T:Public Domain
C:Traditional
Z:Public Domain
%%score ( 1 2 ) 3
L:1/8
M:6/8
K:Bb
V:1 treble 
V:2 treble 
V:3 bass 
V:1
 [DF] | (FG)[DF] (FG)[EA] | [DB]2 [DF] [DF]2 [DF] | (FG)[DF] (FG)[EA] | ([D-B]3 [DF]2) F | %5
w: 1.~Dear|lit- * tle One! * how|art, Thine eyes so|bright * they shine, * So|al- * most|
w: 2.~When|Ma- * ry bids * Thee|sleep’st, Thou wak- est|when * she calls; * Thou|tent * up-|
w: 3.~When|Jo- * seph takes * Thee|arms, And smoothes Thy|lit- * tle cheek, * Thou|up * in-|
 [Fd]2 [Fd] (dc)[FB] | [Ge]2 [Ge] ([Ge][Fd])[Ec] | (BA)[DG] (FG)[EA] | [DB]3- [DB]2 [DF] | %9
w: to speak When * Ma-|looks meet Thine. * How|faint * and fee- * ble|cry, * Like|
w: her lap, Or * in|rug- ged stalls. * Sim-|plest * of Babes! * with|grace, * Thou|
w: his face So * help-|and so meek. * Yes!|Thou * art what * Thou|be, * A|
 [DB]2 [DB] (BA)[DG] | (FA)[Ec] ([Ge][Fd])[Ec] | [DB]2 [DB] (BA)[GB] | ([Bd]3 [Ac]2) [Ac] | %13
w: plaint of harm- * less|When * Thou dost * mur-|in Thy sleep * Of|row * and|
w: dost Thy mo- * ther’s|Thine * in- fant * fa-|all be- tray * The|head’s * hid-|
w: thing of smiles * and|Yet * Thou art * God,|Heav’n and earth * A-|Thee * with|
 [Ac]2 [Ac] [Gc]2 [Gc] | ([Ac][^G=B])[Ac] [_Bd]2 [Bd] | ([Bd][Ac])[FA] (cB)[_EG] | F3- F2 |] %17
w: of love. * *||||
w: den skill. * *||||
w: their fears. * *||||
V:2
 x | D2 E2 x2 | x6 | D2 E2 x2 | x5 F | x3 F2 x | x6 | D2 E2 x2 | x6 | x3 D2 x | E2 x4 | x3 =E2 x | %12
w: |sweet Thou||bright they|seem|ry’s||is Thy||dove,|mur|sor-|
w: |sleep Thou||art con-|on|the||what a||will,|shions|God-|
w: |in his||look- est|to|less||seem’st to||tears;|and|dore|
 x6 | x6 | x6 | x3 =E2 x | F3- F2 |] %17
w: |||||
w: |||||
w: |||||
V:3
 B,, | B,,2 B,, F,2 F, | B,,2 B,, B,,2 B,, | B,,2 B,, F,2 F, | (B,,3- B,,2) F, | %5
 B,,2 B,, (B,,C,)D, | E,2 E, (C,D,)E, | F,2 F, F,,2 F,, | B,,3- B,,2 B,, | B,,2 B,, B,,2 B,, | %10
 F,2 F, F,2 F, | B,2 B, G,2 =E, | F,3- F,2 F, | F,2 F, =E,2 E, | F,2 F, B,,2 B,, | F,2 F, C,2 C, | %16
 F,3- F,2 |] %17

